package/converter/svg/solid/cloud-slash.svg

<svg xmlns="http://www.w3.org/2000/svg" viewBox="0 0 640 512"><!-- Font Awesome Pro 6.0.0-alpha2 by @fontawesome - https://fontawesome.com License - https://fontawesome.com/license (Commercial License) --><path d="M96 192C96 194.703 96.094 197.406 96.188 200.094C40.188 219.797 0 273.203 0 336C0 415.5 64.5 480 144 480H489.061L97.873 173.396C97.15 179.574 96 185.627 96 192ZM599.506 444.564C624.279 421.35 640 388.684 640 352C640 290.094 596 238.406 537.594 226.594C541.688 215.906 544 204.203 544 192C544 139 501 96 448 96C428.312 96 409.906 102 394.688 112.203C367 64.203 315.312 32 256 32C209.566 32 168.166 52.049 139.078 83.691L38.816 5.109C34.41 1.672 29.191 0 24.035 0C16.91 0 9.848 3.156 5.129 9.188C-3.059 19.625 -1.246 34.717 9.191 42.889L601.187 506.883C611.687 515.086 626.75 513.211 634.875 502.805C643.062 492.367 641.25 477.273 630.812 469.102L599.506 444.564Z"/></svg>

<svg xmlns="http://www.w3.org/2000/svg" viewBox="0 0 640 512"><!--! Font Awesome Pro 6.6.0 by @fontawesome - https://fontawesome.com License - https://fontawesome.com/license (Commercial License) Copyright 2024 Fonticons, Inc. --><path d="M38.8 5.1C28.4-3.1 13.3-1.2 5.1 9.2S-1.2 34.7 9.2 42.9l592 464c10.4 8.2 25.5 6.3 33.7-4.1s6.3-25.5-4.1-33.7L600 445c24.6-23.3 40-56.3 40-93c0-61.9-44-113.6-102.4-125.4c4.1-10.7 6.4-22.4 6.4-34.6c0-53-43-96-96-96c-19.7 0-38.1 6-53.3 16.2C367 64.2 315.3 32 256 32c-46.4 0-88.2 19.8-117.4 51.3L38.8 5.1zM97.2 172.6c-.8 6.4-1.2 12.9-1.2 19.4c0 2.7 .1 5.4 .2 8.1C40.2 219.8 0 273.2 0 336c0 79.5 64.5 144 144 144l343.4 0L97.2 172.6z"/></svg>
